Newaita-dark/apps/24/datovka.svg

<svg height="24" viewBox="0 0 24 24" width="24" xmlns="http://www.w3.org/2000/svg" xmlns:xlink="http://www.w3.org/1999/xlink"><linearGradient id="a" gradientUnits="userSpaceOnUse" x1="11.90739" x2="11.90739" y1="21.02545225" y2="22.01773525002"><stop offset="0" stop-opacity=".27451"/><stop offset="1" stop-opacity="0"/></linearGradient><linearGradient id="b"><stop offset="0" stop-opacity=".313726"/><stop offset=".222222" stop-opacity=".27451"/><stop offset="1" stop-opacity="0"/></linearGradient><radialGradient id="c" cx="450.908936" cy="189.579361" gradientTransform="matrix(.00000013 -.0585994 -.105479 -.00000008 39.097986 47.696499)" gradientUnits="userSpaceOnUse" r="21.166656" xlink:href="#b"/><radialGradient id="d" cx="450.908936" cy="189.579361" gradientTransform="matrix(-.00000013 .0585994 .105479 .00000008 -15.28321 -5.645609)" gradientUnits="userSpaceOnUse" r="21.166656" xlink:href="#b"/><radialGradient id="e" cx="450.908936" cy="189.579361" gradientTransform="matrix(-.00000013 -.0585994 .105479 -.00000008 -15.28321 47.696499)" gradientUnits="userSpaceOnUse" r="21.166656" xlink:href="#b"/><radialGradient id="f" cx="450.908936" cy="189.579361" gradientTransform="matrix(.00000013 .0585994 -.105479 .00000008 39.097985 -5.64561)" gradientUnits="userSpaceOnUse" r="21.166656" xlink:href="#b"/><linearGradient id="g" gradientUnits="userSpaceOnUse" x1="7.93826174998" x2="7.93826174998" y1="21.02545025" y2="2.17207850005"><stop offset="0" stop-color="#2979ff"/><stop offset="1" stop-color="#42a5f5"/></linearGradient><linearGradient id="h" gradientUnits="userSpaceOnUse" x1="11.90736" x2="11.90736075661" y1="21.02539814717" y2="2.17207757661"><stop offset="0" stop-color="#ffa726"/><stop offset="1" stop-color="#ffb74d"/></linearGradient><path d="m4.464844 20.953125h14.882812v1.101563h-14.882812zm0 0" fill="url(#a)"/><path d="m19.347656 21.027344h1.988282v-.996094h-1.988282zm0 0" fill="url(#c)"/><path d="m4.464844 21.027344h-1.984375v.992187h1.984375zm0 0" fill="url(#d)"/><path d="m4.464844 21.027344h-1.984375v-.996094h1.984375zm0 0" fill="url(#e)"/><path d="m19.347656 21.027344h1.988282v.992187h-1.988282zm0 0" fill="url(#f)"/><path d="m3.472656 2.171875h16.867188c.550781 0 .996094.445313.996094.992187v16.867188c0 .550781-.445313.996094-.996094.996094h-16.867188c-.546875 0-.992187-.445313-.992187-.996094v-16.867188c0-.546874.445312-.992187.992187-.992187zm0 0" fill="url(#g)"/><path d="m10.03125 11.597656-7.441406 7.441406h-.109375v.992188c0 .550781.441406.996094.992187.996094h16.867188c.550781 0 .996094-.445313.996094-.996094v-.992188h-.109376l-7.441406-7.441406-1.175781 1.175782c-.390625.386718-1.015625.386718-1.402344 0zm0 0" fill-opacity=".078431"/><path d="m3.472656 2.242188c-.550781 0-.992187.445312-.992187.992187v.125c0-.550781.441406-.992187.992187-.992187h16.867188c.550781 0 .996094.441406.996094.992187v-.125c0-.546875-.445313-.992187-.996094-.992187zm0 0" fill="#e6e6e6" fill-opacity=".392157"/><path d="m3.472656 20.953125c-.550781 0-.992187-.445313-.992187-.992187v-.125c0 .550781.441406.992187.992187.992187h16.867188c.550781 0 .996094-.441406.996094-.992187v.125c0 .546874-.445313.992187-.996094.992187zm0 0" fill-opacity=".196078"/><path d="m3.472656 2.171875c-.550781 0-.992187.441406-.992187.992187v.992188h.109375l8.617187 8.617188c.386719.386718 1.011719.386718 1.402344 0l8.617187-8.617188h.109376v-.992188c0-.550781-.445313-.992187-.996094-.992187zm0 0" fill="#fff" fill-opacity=".117647"/><path d="m74.076259-168.671091h359.798975c11.748878 0 21.247971 9.499093 21.247971 21.164646v359.798974c0 11.748878-9.499093 21.247971-21.247971 21.247971h-359.798975c-11.665552 0-21.164645-9.499093-21.164645-21.247971v-359.798974c0-11.665553 9.499093-21.164646 21.164645-21.164646zm0 0" fill="none" stroke="#212121" stroke-linecap="round" stroke-width="3" transform="matrix(.0468795 0 0 .0468795 0 10.079087)"/><path d="m9.179688 5.367188c-.375 0-.695313.269531-.761719.636718l-.746094 4.105469h3.28125l.183594-1.039063c.097656-.546874.777343-.859374 1.15625-.53125l1.851562 2.558594c.152344.128906.214844.332032.171875.546875-.042968.203125-.175781.390625-.359375.511719l-2.753906 2.558594c-.496094.328125-1.0625.015625-.96875-.53125l.183594-1.039063h-3.296875l-.6875 3.773438c-.085938.472656.277344.910156.761718.910156h4.003907c3.4375 0 6.230469-2.792969 6.230469-6.230469s-2.792969-6.230468-6.230469-6.230468zm0 0" fill="url(#h)"/><path d="m9.179688 5.367188c-.375 0-.695313.269531-.761719.636718l-.746094 4.105469h.058594l.6875-3.773437c.066406-.367188.386719-.632813.761719-.632813h2.019531c3.382812 0 6.140625 2.699219 6.226562 6.0625.003907-.054687.003907-.109375.003907-.167969 0-3.4375-2.792969-6.230468-6.230469-6.230468zm5.125 6.316406c-.046876.1875-.171876.359375-.347657.472656l-2.753906 2.558594c-.402344.269531-.855469.109375-.957031-.253906l-.011719.058593c-.09375.546875.472656.855469.96875.527344l2.753906-2.554687c.183594-.125.316407-.3125.359375-.515626.019532-.101562.015625-.203124-.011718-.292968zm-7.183594 1.460937-.6875 3.773438c-.019532.105469-.015625.207031.003906.304687l.683594-3.746094h3.238281l.058594-.332031zm0 0" fill="#fff" fill-opacity=".392157"/><path d="m11.921875 8.402344c-.34375 0-.714844.273437-.785156.667968l-.183594 1.039063h-3.191406l-.089844.496094h3.28125l.183594-1.039063c.097656-.546875.777343-.859375 1.15625-.53125l1.851562 2.558594c.058594.046875.101563.105469.132813.175781.015625-.042969.027344-.082031.039062-.125.042969-.214843-.019531-.417969-.171875-.546875l-1.851562-2.558594c-.105469-.09375-.238281-.136718-.371094-.136718zm5.5 3.445312c-.128906 3.324219-2.867187 5.980469-6.222656 5.980469h-4.003907c-.351562 0-.640624-.230469-.738281-.539063l-.023437.125c-.085938.472657.277344.910157.761718.910157h4.003907c3.4375 0 6.230469-2.792969 6.230469-6.230469 0-.082031-.003907-.164062-.007813-.246094zm-7.089844 1.792969-.097656.542969c-.019531.125-.007813.238281.03125.332031l.152344-.875zm0 0" fill-opacity=".235294"/><path d="m740.086844 432.714606c-30.233334 0-56.057641 21.73021-61.411461 51.333683l-60.151739 330.992032h264.54168l14.801737-83.771533c7.873264-44.09028 62.671184-69.284725 93.219449-42.830557l149.277092 206.279524c12.282292 10.392709 17.321181 26.769099 13.856945 44.09028-3.464237 16.37639-14.171876 31.493058-28.973613 41.255905l-222.026053 206.279525c-39.996183 26.454168-85.661116 1.259722-78.102782-42.830558l14.801737-83.771532h-265.801403l-55.427781 304.222933c-6.928472 38.106599 22.360071 73.378823 61.411462 73.378823h322.803836c277.138904 0 502.314263-225.175359 502.314263-502.314262 0-277.138904-225.175359-502.314263-502.314263-502.314263zm0 0" fill="none" stroke="#212121" stroke-linecap="round" stroke-linejoin="round" stroke-width="11.338583" transform="scale(.0124035)"/></svg>

<?xml version="1.0" encoding="UTF-8"?>
<svg xmlns="http://www.w3.org/2000/svg" xmlns:xlink="http://www.w3.org/1999/xlink" width="24px" height="24px" viewBox="0 0 24 24" version="1.1">
<defs>
<linearGradient id="linear0" gradientUnits="userSpaceOnUse" x1="254" y1="233.5" x2="254" y2="254.666672" gradientTransform="matrix(0.0468795,0,0,0.0468795,-0.0000028613,10.079089)">
<stop offset="0" style="stop-color:rgb(0%,0%,0%);stop-opacity:0.27451;"/>
<stop offset="1" style="stop-color:rgb(0%,0%,0%);stop-opacity:0;"/>
</linearGradient>
<radialGradient id="radial0" gradientUnits="userSpaceOnUse" cx="450.908936" cy="189.579361" fx="450.908936" fy="189.579361" r="21.166656" gradientTransform="matrix(0.000000130628,-0.0585994,-0.105479,-0.0000000761539,39.097986,47.696499)">
<stop offset="0" style="stop-color:rgb(0%,0%,0%);stop-opacity:0.313726;"/>
<stop offset="0.222222" style="stop-color:rgb(0%,0%,0%);stop-opacity:0.27451;"/>
<stop offset="1" style="stop-color:rgb(0%,0%,0%);stop-opacity:0;"/>
</radialGradient>
<radialGradient id="radial1" gradientUnits="userSpaceOnUse" cx="450.908936" cy="189.579361" fx="450.908936" fy="189.579361" r="21.166656" gradientTransform="matrix(-0.000000130628,0.0585994,0.105479,0.0000000761539,-15.28321,-5.645609)">
<stop offset="0" style="stop-color:rgb(0%,0%,0%);stop-opacity:0.313726;"/>
<stop offset="0.222222" style="stop-color:rgb(0%,0%,0%);stop-opacity:0.27451;"/>
<stop offset="1" style="stop-color:rgb(0%,0%,0%);stop-opacity:0;"/>
</radialGradient>
<radialGradient id="radial2" gradientUnits="userSpaceOnUse" cx="450.908936" cy="189.579361" fx="450.908936" fy="189.579361" r="21.166656" gradientTransform="matrix(-0.000000130628,-0.0585994,0.105479,-0.0000000761539,-15.28321,47.696499)">
<stop offset="0" style="stop-color:rgb(0%,0%,0%);stop-opacity:0.313726;"/>
<stop offset="0.222222" style="stop-color:rgb(0%,0%,0%);stop-opacity:0.27451;"/>
<stop offset="1" style="stop-color:rgb(0%,0%,0%);stop-opacity:0;"/>
</radialGradient>
<radialGradient id="radial3" gradientUnits="userSpaceOnUse" cx="450.908936" cy="189.579361" fx="450.908936" fy="189.579361" r="21.166656" gradientTransform="matrix(0.000000130628,0.0585994,-0.105479,0.0000000761539,39.097985,-5.64561)">
<stop offset="0" style="stop-color:rgb(0%,0%,0%);stop-opacity:0.313726;"/>
<stop offset="0.222222" style="stop-color:rgb(0%,0%,0%);stop-opacity:0.27451;"/>
<stop offset="1" style="stop-color:rgb(0%,0%,0%);stop-opacity:0;"/>
</radialGradient>
<linearGradient id="linear1" gradientUnits="userSpaceOnUse" x1="169.333328" y1="233.5" x2="169.333328" y2="-168.666656" gradientTransform="matrix(0.0468795,0,0,0.0468795,0,10.079087)">
<stop offset="0" style="stop-color:rgb(16.078432%,47.450981%,100%);stop-opacity:1;"/>
<stop offset="1" style="stop-color:rgb(25.882354%,64.705884%,96.078432%);stop-opacity:1;"/>
</linearGradient>
<linearGradient id="linear2" gradientUnits="userSpaceOnUse" x1="960" y1="1695.118164" x2="960.000061" y2="175.118118" gradientTransform="matrix(0.0124035,0,0,0.0124035,0,0.00000000000000141)">
<stop offset="0" style="stop-color:rgb(100%,65.490198%,14.901961%);stop-opacity:1;"/>
<stop offset="1" style="stop-color:rgb(100%,71.764708%,30.19608%);stop-opacity:1;"/>
</linearGradient>
</defs>
<g id="surface1">
<path style=" stroke:none;fill-rule:nonzero;fill:url(#linear0);" d="M 4.464844 20.953125 L 19.347656 20.953125 L 19.347656 22.054688 L 4.464844 22.054688 Z M 4.464844 20.953125 "/>
<path style=" stroke:none;fill-rule:nonzero;fill:url(#radial0);" d="M 19.347656 21.027344 L 21.335938 21.027344 L 21.335938 20.03125 L 19.347656 20.03125 Z M 19.347656 21.027344 "/>
<path style=" stroke:none;fill-rule:nonzero;fill:url(#radial1);" d="M 4.464844 21.027344 L 2.480469 21.027344 L 2.480469 22.019531 L 4.464844 22.019531 Z M 4.464844 21.027344 "/>
<path style=" stroke:none;fill-rule:nonzero;fill:url(#radial2);" d="M 4.464844 21.027344 L 2.480469 21.027344 L 2.480469 20.03125 L 4.464844 20.03125 Z M 4.464844 21.027344 "/>
<path style=" stroke:none;fill-rule:nonzero;fill:url(#radial3);" d="M 19.347656 21.027344 L 21.335938 21.027344 L 21.335938 22.019531 L 19.347656 22.019531 Z M 19.347656 21.027344 "/>
<path style=" stroke:none;fill-rule:nonzero;fill:url(#linear1);" d="M 3.472656 2.171875 L 20.339844 2.171875 C 20.890625 2.171875 21.335938 2.617188 21.335938 3.164062 L 21.335938 20.03125 C 21.335938 20.582031 20.890625 21.027344 20.339844 21.027344 L 3.472656 21.027344 C 2.925781 21.027344 2.480469 20.582031 2.480469 20.03125 L 2.480469 3.164062 C 2.480469 2.617188 2.925781 2.171875 3.472656 2.171875 Z M 3.472656 2.171875 "/>
<path style=" stroke:none;fill-rule:nonzero;fill:rgb(0%,0%,0%);fill-opacity:0.0784314;" d="M 10.03125 11.597656 L 2.589844 19.039062 L 2.480469 19.039062 L 2.480469 20.03125 C 2.480469 20.582031 2.921875 21.027344 3.472656 21.027344 L 20.339844 21.027344 C 20.890625 21.027344 21.335938 20.582031 21.335938 20.03125 L 21.335938 19.039062 L 21.226562 19.039062 L 13.785156 11.597656 L 12.609375 12.773438 C 12.21875 13.160156 11.59375 13.160156 11.207031 12.773438 Z M 10.03125 11.597656 "/>
<path style=" stroke:none;fill-rule:nonzero;fill:rgb(90.196079%,90.196079%,90.196079%);fill-opacity:0.392157;" d="M 3.472656 2.242188 C 2.921875 2.242188 2.480469 2.6875 2.480469 3.234375 L 2.480469 3.359375 C 2.480469 2.808594 2.921875 2.367188 3.472656 2.367188 L 20.339844 2.367188 C 20.890625 2.367188 21.335938 2.808594 21.335938 3.359375 L 21.335938 3.234375 C 21.335938 2.6875 20.890625 2.242188 20.339844 2.242188 Z M 3.472656 2.242188 "/>
<path style=" stroke:none;fill-rule:nonzero;fill:rgb(0%,0%,0%);fill-opacity:0.196078;" d="M 3.472656 20.953125 C 2.921875 20.953125 2.480469 20.507812 2.480469 19.960938 L 2.480469 19.835938 C 2.480469 20.386719 2.921875 20.828125 3.472656 20.828125 L 20.339844 20.828125 C 20.890625 20.828125 21.335938 20.386719 21.335938 19.835938 L 21.335938 19.960938 C 21.335938 20.507812 20.890625 20.953125 20.339844 20.953125 Z M 3.472656 20.953125 "/>
<path style=" stroke:none;fill-rule:nonzero;fill:rgb(100%,100%,100%);fill-opacity:0.117647;" d="M 3.472656 2.171875 C 2.921875 2.171875 2.480469 2.613281 2.480469 3.164062 L 2.480469 4.15625 L 2.589844 4.15625 L 11.207031 12.773438 C 11.59375 13.160156 12.21875 13.160156 12.609375 12.773438 L 21.226562 4.15625 L 21.335938 4.15625 L 21.335938 3.164062 C 21.335938 2.613281 20.890625 2.171875 20.339844 2.171875 Z M 3.472656 2.171875 "/>
<path style="fill:none;stroke-width:3;stroke-linecap:round;stroke-linejoin:miter;stroke:rgb(12.941177%,12.941177%,12.941177%);stroke-opacity:1;stroke-miterlimit:4;" d="M 74.076259 -168.671091 L 433.875234 -168.671091 C 445.624112 -168.671091 455.123205 -159.171998 455.123205 -147.506445 L 455.123205 212.292529 C 455.123205 224.041407 445.624112 233.5405 433.875234 233.5405 L 74.076259 233.5405 C 62.410707 233.5405 52.911614 224.041407 52.911614 212.292529 L 52.911614 -147.506445 C 52.911614 -159.171998 62.410707 -168.671091 74.076259 -168.671091 Z M 74.076259 -168.671091 " transform="matrix(0.0468795,0,0,0.0468795,0,10.079087)"/>
<path style=" stroke:none;fill-rule:nonzero;fill:url(#linear2);" d="M 9.179688 5.367188 C 8.804688 5.367188 8.484375 5.636719 8.417969 6.003906 L 7.671875 10.109375 L 10.953125 10.109375 L 11.136719 9.070312 C 11.234375 8.523438 11.914062 8.210938 12.292969 8.539062 L 14.144531 11.097656 C 14.296875 11.226562 14.359375 11.429688 14.316406 11.644531 C 14.273438 11.847656 14.140625 12.035156 13.957031 12.15625 L 11.203125 14.714844 C 10.707031 15.042969 10.140625 14.730469 10.234375 14.183594 L 10.417969 13.144531 L 7.121094 13.144531 L 6.433594 16.917969 C 6.347656 17.390625 6.710938 17.828125 7.195312 17.828125 L 11.199219 17.828125 C 14.636719 17.828125 17.429688 15.035156 17.429688 11.597656 C 17.429688 8.160156 14.636719 5.367188 11.199219 5.367188 Z M 9.179688 5.367188 "/>
<path style=" stroke:none;fill-rule:nonzero;fill:rgb(100%,100%,100%);fill-opacity:0.392157;" d="M 9.179688 5.367188 C 8.804688 5.367188 8.484375 5.636719 8.417969 6.003906 L 7.671875 10.109375 L 7.730469 10.109375 L 8.417969 6.335938 C 8.484375 5.96875 8.804688 5.703125 9.179688 5.703125 L 11.199219 5.703125 C 14.582031 5.703125 17.339844 8.402344 17.425781 11.765625 C 17.429688 11.710938 17.429688 11.65625 17.429688 11.597656 C 17.429688 8.160156 14.636719 5.367188 11.199219 5.367188 Z M 14.304688 11.683594 C 14.257812 11.871094 14.132812 12.042969 13.957031 12.15625 L 11.203125 14.714844 C 10.800781 14.984375 10.347656 14.824219 10.246094 14.460938 L 10.234375 14.519531 C 10.140625 15.066406 10.707031 15.375 11.203125 15.046875 L 13.957031 12.492188 C 14.140625 12.367188 14.273438 12.179688 14.316406 11.976562 C 14.335938 11.875 14.332031 11.773438 14.304688 11.683594 Z M 7.121094 13.144531 L 6.433594 16.917969 C 6.414062 17.023438 6.417969 17.125 6.4375 17.222656 L 7.121094 13.476562 L 10.359375 13.476562 L 10.417969 13.144531 Z M 7.121094 13.144531 "/>
<path style=" stroke:none;fill-rule:nonzero;fill:rgb(0%,0%,0%);fill-opacity:0.235294;" d="M 11.921875 8.402344 C 11.578125 8.402344 11.207031 8.675781 11.136719 9.070312 L 10.953125 10.109375 L 7.761719 10.109375 L 7.671875 10.605469 L 10.953125 10.605469 L 11.136719 9.566406 C 11.234375 9.019531 11.914062 8.707031 12.292969 9.035156 L 14.144531 11.59375 C 14.203125 11.640625 14.246094 11.699219 14.277344 11.769531 C 14.292969 11.726562 14.304688 11.6875 14.316406 11.644531 C 14.359375 11.429688 14.296875 11.226562 14.144531 11.097656 L 12.292969 8.539062 C 12.1875 8.445312 12.054688 8.402344 11.921875 8.402344 Z M 17.421875 11.847656 C 17.292969 15.171875 14.554688 17.828125 11.199219 17.828125 L 7.195312 17.828125 C 6.84375 17.828125 6.554688 17.597656 6.457031 17.289062 L 6.433594 17.414062 C 6.347656 17.886719 6.710938 18.324219 7.195312 18.324219 L 11.199219 18.324219 C 14.636719 18.324219 17.429688 15.53125 17.429688 12.09375 C 17.429688 12.011719 17.425781 11.929688 17.421875 11.847656 Z M 10.332031 13.640625 L 10.234375 14.183594 C 10.214844 14.308594 10.226562 14.421875 10.265625 14.515625 L 10.417969 13.640625 Z M 10.332031 13.640625 "/>
<path style="fill:none;stroke-width:11.338583;stroke-linecap:round;stroke-linejoin:round;stroke:rgb(12.941177%,12.941177%,12.941177%);stroke-opacity:1;stroke-miterlimit:4;" d="M 740.086844 432.714606 C 709.85351 432.714606 684.029203 454.444816 678.675383 484.048289 L 618.523644 815.040321 L 883.065324 815.040321 L 897.867061 731.268788 C 905.740325 687.178508 960.538245 661.984063 991.08651 688.438231 L 1140.363602 894.717755 C 1152.645894 905.110464 1157.684783 921.486854 1154.220547 938.808035 C 1150.75631 955.184425 1140.048671 970.301093 1125.246934 980.06394 L 903.220881 1186.343465 C 863.224698 1212.797633 817.559765 1187.603187 825.118099 1143.512907 L 839.919836 1059.741375 L 574.118433 1059.741375 L 518.690652 1363.964308 C 511.76218 1402.070907 541.050723 1437.343131 580.102114 1437.343131 L 902.90595 1437.343131 C 1180.044854 1437.343131 1405.220213 1212.167772 1405.220213 935.028869 C 1405.220213 657.889965 1180.044854 432.714606 902.90595 432.714606 Z M 740.086844 432.714606 " transform="matrix(0.0124035,0,0,0.0124035,0,0)"/>
</g>
</svg>
